gnome/scalable/status/bluetooth-disabled-symbolic.svg

<?xml version='1.0' encoding='UTF-8' standalone='no'?>
<!-- Created with Inkscape (http://www.inkscape.org/) -->

<svg xmlns:cc='http://creativecommons.org/ns#' xmlns:dc='http://purl.org/dc/elements/1.1/' sodipodi:docname='bluetooth-disabled-symbolic.svg' height='16' id='svg7384' xmlns:inkscape='http://www.inkscape.org/namespaces/inkscape' xmlns:rdf='http://www.w3.org/1999/02/22-rdf-syntax-ns#' xmlns:sodipodi='http://sodipodi.sourceforge.net/DTD/sodipodi-0.dtd' xmlns:svg='http://www.w3.org/2000/svg' inkscape:version='0.48.4 r9939' version='1.1' width='16' xmlns='http://www.w3.org/2000/svg'>
  <metadata id='metadata90'>
    <rdf:RDF>
      <cc:Work rdf:about=''>
        <dc:format>image/svg+xml</dc:format>
        <dc:type rdf:resource='http://purl.org/dc/dcmitype/StillImage'/>
        <dc:title>Gnome Symbolic Icon Theme</dc:title>
      </cc:Work>
    </rdf:RDF>
  </metadata>
  <sodipodi:namedview inkscape:bbox-nodes='false' inkscape:bbox-paths='true' bordercolor='#666666' borderopacity='1' inkscape:current-layer='layer9' inkscape:cx='13.40049' inkscape:cy='75.278916' gridtolerance='10' inkscape:guide-bbox='true' guidetolerance='10' id='namedview88' inkscape:object-nodes='false' inkscape:object-paths='false' objecttolerance='10' pagecolor='#3a3b39' inkscape:pageopacity='1' inkscape:pageshadow='2' showborder='false' showgrid='false' showguides='true' inkscape:snap-bbox='true' inkscape:snap-bbox-midpoints='false' inkscape:snap-global='true' inkscape:snap-grids='true' inkscape:snap-nodes='false' inkscape:snap-others='false' inkscape:snap-to-guides='true' inkscape:window-height='1403' inkscape:window-maximized='1' inkscape:window-width='2560' inkscape:window-x='0' inkscape:window-y='0' inkscape:zoom='1'>
    <inkscape:grid empspacing='2' enabled='true' id='grid4866' originx='180px' originy='100px' snapvisiblegridlinesonly='true' spacingx='1px' spacingy='1px' type='xygrid' visible='true'/>
  </sodipodi:namedview>
  <title id='title9167'>Gnome Symbolic Icon Theme</title>
  <defs id='defs7386'/>
  <g inkscape:groupmode='layer' id='layer9' inkscape:label='status' style='display:inline' transform='translate(-61.0002,-317)'>
    
    <path inkscape:connector-curvature='0' d='m 67.878465,317.02205 a 0.99458665,0.99458665 0 0 0 -0.870177,0.99448 l 0,3.54286 -1.274186,-1.27418 a 1.0108624,1.0108624 0 1 0 -1.429576,1.42957 l 2.703762,2.70376 0,1.1188 -2.703762,2.70376 a 1.0108624,1.0108624 0 1 0 1.429576,1.42958 l 1.274186,-1.27419 0,3.54286 a 0.99458665,0.99458665 0 0 0 1.709275,0.71479 l 2.268674,-2.26867 0,-3.41855 1.429575,0 -1.988974,-1.98898 2.268674,-2.26867 a 0.99458665,0.99458665 0 0 0 0,-1.42958 l -3.977949,-3.97794 a 0.99458665,0.99458665 0 0 0 -0.839098,-0.2797 z m 1.118798,3.41855 1.553886,1.55388 -1.553886,1.55389 0,-3.10777 z m 0,5.96692 1.553886,1.55389 -1.553886,1.55388 0,-3.10777 z' id='path10847' style='font-size:medium;font-style:normal;font-variant:normal;font-weight:normal;font-stretch:normal;text-indent:0;text-align:start;text-decoration:none;line-height:normal;letter-spacing:normal;word-spacing:normal;text-transform:none;direction:ltr;block-progression:tb;writing-mode:lr-tb;text-anchor:start;opacity:0.7;color:#000000;fill:#bebebe;fill-opacity:1;stroke:none;stroke-width:2;marker:none;visibility:visible;display:inline;overflow:visible;enable-background:accumulate;font-family:Bitstream Vera Sans;-inkscape-font-specification:Bitstream Vera Sans'/>
    <rect height='0.99448723' id='rect10849' style='opacity:0.68600003;fill:#bebebe;fill-opacity:1;stroke:none' width='0.99448723' x='64.025024' y='320.00552'/>
    <rect height='0.99448723' id='rect10851' style='opacity:0.68600003;fill:#bebebe;fill-opacity:1;stroke:none' width='0.99448723' x='64.025024' y='328.9559'/>
    <rect height='0.99448723' id='rect10853' style='opacity:0.68600003;fill:#bebebe;fill-opacity:1;stroke:none' width='0.99448723' x='67.008484' y='331.90808'/>
    <rect height='0.99448723' id='rect10855' style='opacity:0.68600003;fill:#bebebe;fill-opacity:1;stroke:none' width='0.99448723' x='67.008484' y='317.05331'/>
    <path inkscape:connector-curvature='0' d='m 72.0002,328 1.375,0 1.125,1.09375 1.09375,-1.09375 1.40625,0 0,1.46875 -1.09375,1.0625 1.09375,1.0625 0,1.40625 -1.4375,0 -1.0625,-1.0625 -1.0625,1.0625 -1.4375,0 0,-1.40625 1.0625,-1.0625 -1.0625,-1.0625 0,-1.46875 z' id='path3761-2-3-5-4-8-9-8-0-9' sodipodi:nodetypes='ccccccccccccccccc' style='color:#bebebe;fill:#bebebe;fill-opacity:1;stroke:none;stroke-width:2;marker:none;visibility:visible;display:inline;overflow:visible'/>
  </g>
  <g inkscape:groupmode='layer' id='layer10' inkscape:label='devices' transform='translate(-61.0002,-317)'/>
  <g inkscape:groupmode='layer' id='layer11' inkscape:label='apps' transform='translate(-61.0002,-317)'/>
  <g inkscape:groupmode='layer' id='layer13' inkscape:label='places' transform='translate(-61.0002,-317)'/>
  <g inkscape:groupmode='layer' id='layer14' inkscape:label='mimetypes' transform='translate(-61.0002,-317)'/>
  <g inkscape:groupmode='layer' id='layer15' inkscape:label='emblems' style='display:inline' transform='translate(-61.0002,-317)'/>
  <g inkscape:groupmode='layer' id='g71291' inkscape:label='emotes' style='display:inline' transform='translate(-61.0002,-317)'/>
  <g inkscape:groupmode='layer' id='g4953' inkscape:label='categories' style='display:inline' transform='translate(-61.0002,-317)'/>
  <g inkscape:groupmode='layer' id='layer12' inkscape:label='actions' style='display:inline' transform='translate(-61.0002,-317)'/>
</svg>

<?xml version='1.0' encoding='UTF-8' standalone='no'?>
<!-- Created with Inkscape (http://www.inkscape.org/) -->

<svg xmlns:cc='http://creativecommons.org/ns#' xmlns:dc='http://purl.org/dc/elements/1.1/' sodipodi:docname='bluetooth-disabled-symbolic.svg' height='16.000011' id='svg7384' xmlns:inkscape='http://www.inkscape.org/namespaces/inkscape' xmlns:rdf='http://www.w3.org/1999/02/22-rdf-syntax-ns#' xmlns:sodipodi='http://sodipodi.sourceforge.net/DTD/sodipodi-0.dtd' xmlns:svg='http://www.w3.org/2000/svg' inkscape:version='0.48.4 r9939' version='1.1' width='16.000002' xmlns='http://www.w3.org/2000/svg'>
  <metadata id='metadata90'>
    <rdf:RDF>
      <cc:Work rdf:about=''>
        <dc:format>image/svg+xml</dc:format>
        <dc:type rdf:resource='http://purl.org/dc/dcmitype/StillImage'/>
        <dc:title>Gnome Symbolic Icon Theme</dc:title>
      </cc:Work>
    </rdf:RDF>
  </metadata>
  <sodipodi:namedview inkscape:bbox-nodes='false' inkscape:bbox-paths='true' bordercolor='#666666' borderopacity='1' inkscape:current-layer='layer9' inkscape:cx='211.28381' inkscape:cy='-321.91029' gridtolerance='10' inkscape:guide-bbox='true' guidetolerance='10' id='namedview88' inkscape:object-nodes='false' inkscape:object-paths='false' objecttolerance='10' pagecolor='#3a3b39' inkscape:pageopacity='1' inkscape:pageshadow='2' showborder='false' showgrid='false' showguides='true' inkscape:snap-bbox='true' inkscape:snap-bbox-midpoints='false' inkscape:snap-global='true' inkscape:snap-grids='true' inkscape:snap-nodes='true' inkscape:snap-others='false' inkscape:snap-to-guides='true' inkscape:window-height='702' inkscape:window-maximized='1' inkscape:window-width='1366' inkscape:window-x='0' inkscape:window-y='27' inkscape:zoom='1'>
    <inkscape:grid empspacing='2' enabled='true' id='grid4866' originx='180px' originy='100.00001px' snapvisiblegridlinesonly='true' spacingx='1px' spacingy='1px' type='xygrid' visible='true'/>
    <inkscape:grid color='#000000' empcolor='#000000' empopacity='0' empspacing='4' enabled='true' id='grid5968' opacity='0.1254902' originx='180px' originy='100.00001px' snapvisiblegridlinesonly='true' spacingx='0.5px' spacingy='0.5px' type='xygrid' visible='true'/>
  </sodipodi:namedview>
  <title id='title9167'>Gnome Symbolic Icon Theme</title>
  <defs id='defs7386'>
    <clipPath clipPathUnits='userSpaceOnUse' id='clipPath8261'>
      <path inkscape:connector-curvature='0' d='m 62.0002,317 0,16 9,0 0,-6 3,0 0,-10 -12,0 z' id='path8263' style='opacity:0.5;fill:#bebebe;fill-opacity:1;stroke:none'/>
    </clipPath>
  </defs>
  <g inkscape:groupmode='layer' id='layer9' inkscape:label='status' style='display:inline' transform='translate(-61.000198,-317)'>
    
    <path clip-path='url(#clipPath8261)' inkscape:connector-curvature='0' d='M 67.875,317 A 1.0001,1.0001 0 0 0 67,318 l 0,3.5625 -1.28125,-1.28125 a 1.016466,1.016466 0 1 0 -1.4375,1.4375 L 67,324.4375 l 0,1.125 -2.71875,2.71875 a 1.016466,1.016466 0 1 0 1.4375,1.4375 L 67,328.4375 67,332 a 1.0001,1.0001 0 0 0 1.71875,0.71875 l 4,-4 a 1.0001,1.0001 0 0 0 0,-1.4375 L 70.4375,325 l 2.28125,-2.28125 a 1.0001,1.0001 0 0 0 0,-1.4375 l -4,-4 A 1.0001,1.0001 0 0 0 67.875,317 z M 69,320.4375 70.5625,322 69,323.5625 l 0,-3.125 z m 0,6 L 70.5625,328 69,329.5625 l 0,-3.125 z' id='path3807-2' style='font-size:medium;font-style:normal;font-variant:normal;font-weight:normal;font-stretch:normal;text-indent:0;text-align:start;text-decoration:none;line-height:normal;letter-spacing:normal;word-spacing:normal;text-transform:none;direction:ltr;block-progression:tb;writing-mode:lr-tb;text-anchor:start;baseline-shift:baseline;opacity:0.5;color:#000000;fill:#bebebe;fill-opacity:1;stroke:none;stroke-width:2;marker:none;visibility:visible;display:inline;overflow:visible;enable-background:accumulate;font-family:Sans;-inkscape-font-specification:Sans'/>
    <rect height='0.99448723' id='rect10849' style='opacity:0.5;fill:#bebebe;fill-opacity:1;stroke:none' width='0.99448723' x='64.025024' y='320.00552'/>
    <rect height='0.99448723' id='rect10851' style='opacity:0.5;fill:#bebebe;fill-opacity:1;stroke:none' width='0.99448723' x='64.000198' y='329'/>
    <rect height='0.99448723' id='rect10853' style='opacity:0.5;fill:#bebebe;fill-opacity:1;stroke:none' width='0.99448723' x='67.000198' y='332.00552'/>
    <rect height='0.99448723' id='rect10855' style='opacity:0.5;fill:#bebebe;fill-opacity:1;stroke:none' width='0.99448723' x='67.000198' y='317'/>
    <path inkscape:connector-curvature='0' d='m 72.0002,328 1.375,0 1.125,1.09375 1.09375,-1.09375 1.40625,0 0,1.46875 -1.09375,1.0625 1.09375,1.0625 0,1.40625 -1.4375,0 -1.0625,-1.0625 -1.0625,1.0625 -1.4375,0 0,-1.40625 1.0625,-1.0625 -1.0625,-1.0625 0,-1.46875 z' id='path3761-2-3-5-4-8-9-8-0-9' sodipodi:nodetypes='ccccccccccccccccc' style='color:#bebebe;fill:#bebebe;fill-opacity:1;stroke:none;stroke-width:2;marker:none;visibility:visible;display:inline;overflow:visible'/>
  </g>
  <g inkscape:groupmode='layer' id='layer10' inkscape:label='devices' style='display:inline' transform='translate(-61.000198,-317)'/>
  <g inkscape:groupmode='layer' id='layer11' inkscape:label='apps' transform='translate(-61.000198,-317)'/>
  <g inkscape:groupmode='layer' id='layer13' inkscape:label='places' style='display:inline' transform='translate(-61.000198,-317)'/>
  <g inkscape:groupmode='layer' id='layer14' inkscape:label='mimetypes' transform='translate(-61.000198,-317)'/>
  <g inkscape:groupmode='layer' id='layer15' inkscape:label='emblems' style='display:inline' transform='translate(-61.000198,-317)'/>
  <g inkscape:groupmode='layer' id='g71291' inkscape:label='emotes' style='display:inline' transform='translate(-61.000198,-317)'/>
  <g inkscape:groupmode='layer' id='g4953' inkscape:label='categories' style='display:inline' transform='translate(-61.000198,-317)'/>
  <g inkscape:groupmode='layer' id='layer12' inkscape:label='actions' style='display:inline' transform='translate(-61.000198,-317)'/>
</svg>
